X:1

T:Batheing Machine

M:6/8

L:1/8

B:Thompson’s Compleat Collection of 200 Favourite Country Dances, vol. 3 (London, 1773)

Z:Transcribed and edited by Flynn Titford-Mock, 2007

Z:abc’s:AK/Fiddler’s Companion

K:G

d|BGd BGd|BGd “tr”d2g|ecg ecg|eca “tr”a2b|gea fdg|ecd “tr”d2c|BGB cAc|BGG “tr”G2:|
|:d|egd fad|gbd fad|egd fad|gbf e2g|dBg eca|fdb e2g|dBg cAc|BGG G2:||

 

BATHGET BOYS. AKA and see "Pease Strae/Straw."

 

BATT HENRY’S FAVOURITE.  Irish, Barndance. G Major (‘A’ and ‘B’ parts) & D Major (‘C’ part). Standard tuning. ABC. The tune was recorded in New York in May, 1922, by South Sligo fiddlers Paddy Killoran (1904-1965) and Paddy Sweeney (1894-1974). Treoir, vol. 36, No. 1, 2004; pg. 28. Ben & Maurice Lennon – “The Natural Bridge” (1999).

